flaticon/dialogue/stamp.svg

<svg xmlns="http://www.w3.org/2000/svg" width="32" height="32" viewBox="0 0 24 24">
    <path d="M 24 13.601562 C 24 13.492188 23.957031 13.390625 23.882812 13.316406 C 23.53125 12.964844 23.335938 12.496094 23.335938 12 C 23.335938 11.503906 23.53125 11.035156 23.882812 10.683594 C 23.957031 10.609375 24 10.507812 24 10.398438 C 24 10.292969 23.957031 10.191406 23.882812 10.117188 C 23.53125 9.765625 23.335938 9.296875 23.335938 8.800781 C 23.335938 8.300781 23.53125 7.835938 23.882812 7.484375 C 24.019531 7.347656 24.039062 7.136719 23.933594 6.976562 L 23.636719 6.535156 C 23.421875 6.210938 23.421875 5.789062 23.636719 5.464844 L 23.933594 5.023438 C 24.039062 4.863281 24.019531 4.652344 23.882812 4.515625 L 22.683594 3.316406 C 22.546875 3.183594 22.335938 3.160156 22.179688 3.265625 L 21.734375 3.5625 C 21.410156 3.78125 20.992188 3.78125 20.664062 3.5625 L 20.222656 3.265625 C 20.0625 3.160156 19.851562 3.183594 19.71875 3.316406 C 19.363281 3.667969 18.898438 3.863281 18.398438 3.863281 C 17.902344 3.863281 17.433594 3.667969 17.082031 3.316406 C 16.925781 3.160156 16.671875 3.160156 16.515625 3.316406 C 16.164062 3.667969 15.699219 3.863281 15.199219 3.863281 C 14.703125 3.863281 14.234375 3.667969 13.882812 3.316406 C 13.726562 3.160156 13.472656 3.160156 13.316406 3.316406 C 12.964844 3.667969 12.496094 3.863281 12 3.863281 C 11.503906 3.863281 11.035156 3.667969 10.683594 3.316406 C 10.527344 3.160156 10.273438 3.160156 10.117188 3.316406 C 9.765625 3.667969 9.296875 3.863281 8.800781 3.863281 C 8.300781 3.863281 7.835938 3.667969 7.484375 3.316406 C 7.328125 3.160156 7.074219 3.160156 6.917969 3.316406 C 6.566406 3.667969 6.097656 3.863281 5.601562 3.863281 C 5.101562 3.863281 4.632812 3.667969 4.28125 3.316406 C 4.148438 3.183594 3.9375 3.160156 3.777344 3.269531 L 3.335938 3.5625 C 3.011719 3.78125 2.589844 3.78125 2.265625 3.5625 L 1.820312 3.265625 C 1.664062 3.160156 1.453125 3.183594 1.316406 3.316406 L 0.117188 4.515625 C -0.0195312 4.652344 -0.0390625 4.863281 0.0664062 5.023438 L 0.363281 5.464844 C 0.578125 5.789062 0.578125 6.210938 0.363281 6.535156 L 0.0664062 6.976562 C -0.0390625 7.136719 -0.0195312 7.347656 0.117188 7.484375 C 0.46875 7.835938 0.664062 8.300781 0.664062 8.800781 C 0.664062 9.296875 0.46875 9.765625 0.117188 10.117188 C 0.0429688 10.191406 0 10.292969 0 10.398438 C 0 10.507812 0.0429688 10.609375 0.117188 10.683594 C 0.46875 11.035156 0.664062 11.503906 0.664062 12 C 0.664062 12.496094 0.46875 12.964844 0.117188 13.316406 C 0.0429688 13.390625 0 13.492188 0 13.601562 C 0 13.707031 0.0429688 13.808594 0.117188 13.882812 C 0.46875 14.234375 0.664062 14.703125 0.664062 15.199219 C 0.664062 15.699219 0.46875 16.164062 0.117188 16.515625 C 0.03125 16.601562 -0.0117188 16.71875 0.00390625 16.839844 C 0.0117188 16.957031 0.078125 17.066406 0.179688 17.132812 C 0.402344 17.28125 0.546875 17.507812 0.59375 17.773438 C 0.640625 18.035156 0.574219 18.300781 0.414062 18.515625 L 0.078125 18.960938 C -0.0390625 19.121094 -0.0234375 19.34375 0.117188 19.484375 L 1.316406 20.683594 C 1.394531 20.761719 1.496094 20.800781 1.601562 20.800781 C 1.683594 20.800781 1.769531 20.773438 1.839844 20.71875 L 2.285156 20.386719 C 2.5 20.226562 2.765625 20.160156 3.027344 20.207031 C 3.292969 20.25 3.519531 20.398438 3.667969 20.621094 C 3.734375 20.722656 3.84375 20.785156 3.960938 20.796875 C 4.082031 20.808594 4.199219 20.769531 4.28125 20.683594 C 4.636719 20.332031 5.101562 20.136719 5.601562 20.136719 C 6.097656 20.136719 6.566406 20.332031 6.917969 20.683594 C 7.074219 20.839844 7.328125 20.839844 7.484375 20.683594 C 7.835938 20.332031 8.304688 20.136719 8.800781 20.136719 C 9.296875 20.136719 9.765625 20.332031 10.117188 20.683594 C 10.273438 20.839844 10.527344 20.839844 10.683594 20.683594 C 11.035156 20.332031 11.503906 20.136719 12 20.136719 C 12.496094 20.136719 12.964844 20.332031 13.316406 20.683594 C 13.472656 20.839844 13.726562 20.839844 13.882812 20.683594 C 14.234375 20.332031 14.703125 20.136719 15.199219 20.136719 C 15.699219 20.136719 16.164062 20.332031 16.519531 20.683594 C 16.675781 20.839844 16.925781 20.839844 17.082031 20.683594 C 17.433594 20.332031 17.902344 20.136719 18.402344 20.136719 C 18.898438 20.136719 19.367188 20.332031 19.71875 20.683594 C 19.800781 20.769531 19.917969 20.808594 20.039062 20.796875 C 20.160156 20.785156 20.265625 20.722656 20.332031 20.621094 C 20.480469 20.398438 20.707031 20.25 20.972656 20.207031 C 21.238281 20.160156 21.5 20.222656 21.714844 20.386719 L 22.160156 20.71875 C 22.320312 20.839844 22.542969 20.824219 22.683594 20.683594 L 23.882812 19.484375 C 24.023438 19.34375 24.039062 19.121094 23.921875 18.960938 L 23.585938 18.515625 C 23.425781 18.300781 23.363281 18.035156 23.40625 17.773438 C 23.453125 17.507812 23.601562 17.28125 23.824219 17.132812 C 23.921875 17.066406 23.988281 16.957031 24 16.839844 C 24.011719 16.71875 23.96875 16.601562 23.882812 16.515625 C 23.53125 16.164062 23.339844 15.695312 23.339844 15.199219 C 23.339844 14.703125 23.53125 14.234375 23.882812 13.882812 C 23.957031 13.808594 24 13.707031 24 13.601562 Z M 23.070312 10.398438 C 22.726562 10.859375 22.539062 11.414062 22.539062 12 C 22.539062 12.585938 22.726562 13.140625 23.070312 13.601562 C 22.726562 14.058594 22.539062 14.613281 22.539062 15.199219 C 22.539062 15.769531 22.714844 16.308594 23.039062 16.757812 C 22.820312 17.003906 22.675781 17.304688 22.617188 17.636719 C 22.535156 18.121094 22.652344 18.601562 22.945312 18.992188 L 23.070312 19.164062 L 22.363281 19.871094 L 22.195312 19.746094 C 21.800781 19.453125 21.320312 19.335938 20.835938 19.417969 C 20.503906 19.476562 20.203125 19.621094 19.957031 19.839844 C 19.019531 19.160156 17.730469 19.171875 16.800781 19.871094 C 15.855469 19.160156 14.542969 19.160156 13.601562 19.871094 C 12.65625 19.160156 11.34375 19.160156 10.398438 19.871094 C 9.457031 19.160156 8.144531 19.160156 7.199219 19.871094 C 6.269531 19.171875 4.980469 19.160156 4.042969 19.839844 C 3.796875 19.621094 3.496094 19.476562 3.164062 19.417969 C 2.679688 19.335938 2.199219 19.453125 1.804688 19.746094 L 1.636719 19.871094 L 0.929688 19.164062 L 1.054688 18.992188 C 1.347656 18.601562 1.464844 18.121094 1.382812 17.636719 C 1.324219 17.304688 1.179688 17.003906 0.960938 16.757812 C 1.285156 16.308594 1.460938 15.769531 1.460938 15.199219 C 1.460938 14.613281 1.277344 14.058594 0.929688 13.601562 C 1.277344 13.140625 1.460938 12.585938 1.460938 12 C 1.460938 11.414062 1.277344 10.859375 0.929688 10.398438 C 1.277344 9.941406 1.460938 9.386719 1.460938 8.800781 C 1.460938 8.199219 1.265625 7.632812 0.902344 7.167969 L 1.027344 6.976562 C 1.425781 6.382812 1.425781 5.617188 1.027344 5.019531 L 0.914062 4.851562 L 1.652344 4.113281 L 1.820312 4.226562 C 2.414062 4.625 3.183594 4.625 3.777344 4.226562 L 3.964844 4.101562 C 4.914062 4.839844 6.246094 4.847656 7.199219 4.128906 C 8.144531 4.839844 9.457031 4.839844 10.398438 4.128906 C 11.34375 4.839844 12.65625 4.839844 13.601562 4.128906 C 14.542969 4.839844 15.855469 4.839844 16.800781 4.128906 C 17.753906 4.847656 19.085938 4.835938 20.035156 4.101562 L 20.222656 4.226562 C 20.816406 4.625 21.585938 4.625 22.179688 4.226562 L 22.347656 4.113281 L 23.085938 4.851562 L 22.972656 5.019531 C 22.574219 5.617188 22.574219 6.382812 22.972656 6.976562 L 23.097656 7.164062 C 22.734375 7.632812 22.539062 8.199219 22.539062 8.800781 C 22.539062 9.386719 22.726562 9.941406 23.070312 10.398438 Z M 23.070312 10.398438"/>
    <path d="M 21.199219 5.601562 L 2.800781 5.601562 C 2.578125 5.601562 2.398438 5.777344 2.398438 6 L 2.398438 18 C 2.398438 18.222656 2.578125 18.398438 2.800781 18.398438 L 21.199219 18.398438 C 21.421875 18.398438 21.601562 18.222656 21.601562 18 L 21.601562 6 C 21.601562 5.777344 21.421875 5.601562 21.199219 5.601562 Z M 20.800781 17.601562 L 3.199219 17.601562 L 3.199219 6.398438 L 20.800781 6.398438 Z M 20.800781 17.601562"/>
    <path d="M9.601562 16.800781C10.921875 16.800781 12 15.722656 12 14.398438 12 13.078125 10.921875 12 9.601562 12 8.277344 12 7.199219 13.078125 7.199219 14.398438 7.199219 15.722656 8.277344 16.800781 9.601562 16.800781zM9.601562 12.800781C10.480469 12.800781 11.199219 13.519531 11.199219 14.398438 11.199219 15.28125 10.480469 16 9.601562 16 8.71875 16 8 15.28125 8 14.398438 8 13.519531 8.71875 12.800781 9.601562 12.800781zM13.109375 13.457031C13.382812 13.125 13.820312 13.125 14.09375 13.457031 14.382812 13.808594 14.777344 14 15.199219 14 15.625 14 16.015625 13.808594 16.308594 13.457031 16.582031 13.125 17.019531 13.125 17.292969 13.457031 17.582031 13.808594 17.976562 14 18.398438 14 18.824219 14 19.21875 13.808594 19.507812 13.457031 19.648438 13.285156 19.625 13.03125 19.457031 12.890625 19.285156 12.75 19.03125 12.773438 18.890625 12.945312 18.621094 13.273438 18.179688 13.273438 17.90625 12.945312 17.617188 12.59375 17.222656 12.398438 16.800781 12.398438 16.375 12.398438 15.984375 12.59375 15.691406 12.945312 15.417969 13.273438 14.980469 13.273438 14.707031 12.945312 14.417969 12.59375 14.023438 12.398438 13.601562 12.398438 13.175781 12.398438 12.78125 12.59375 12.492188 12.945312 12.351562 13.113281 12.375 13.367188 12.542969 13.507812 12.714844 13.648438 12.96875 13.625 13.109375 13.457031zM13.109375 15.855469C13.382812 15.527344 13.820312 15.527344 14.09375 15.855469 14.382812 16.207031 14.777344 16.398438 15.199219 16.398438 15.625 16.398438 16.015625 16.207031 16.308594 15.855469 16.582031 15.527344 17.019531 15.527344 17.292969 15.855469 17.582031 16.207031 17.976562 16.398438 18.398438 16.398438 18.824219 16.398438 19.21875 16.207031 19.507812 15.855469 19.648438 15.683594 19.625 15.433594 19.457031 15.292969 19.285156 15.152344 19.03125 15.175781 18.890625 15.34375 18.621094 15.675781 18.179688 15.675781 17.90625 15.34375 17.617188 14.992188 17.222656 14.800781 16.800781 14.800781 16.375 14.800781 15.984375 14.992188 15.691406 15.34375 15.417969 15.675781 14.980469 15.675781 14.707031 15.34375 14.417969 14.992188 14.023438 14.800781 13.601562 14.800781 13.175781 14.800781 12.78125 14.992188 12.492188 15.34375 12.351562 15.515625 12.375 15.765625 12.542969 15.90625 12.714844 16.050781 12.96875 16.027344 13.109375 15.855469zM13.109375 15.855469"/>
</svg>

<svg xmlns="http://www.w3.org/2000/svg" width="32" height="32" viewBox="0 0 24 24">
    <path d="M24 13.602c0-.11-.043-.211-.117-.286A1.853 1.853 0 0 1 23.336 12c0-.496.195-.965.547-1.316a.402.402 0 0 0 0-.567 1.853 1.853 0 0 1-.547-1.316c0-.5.195-.965.547-1.317a.402.402 0 0 0 .05-.507l-.296-.442a.97.97 0 0 1 0-1.07l.297-.442a.402.402 0 0 0-.051-.507l-1.2-1.2a.402.402 0 0 0-.503-.05l-.446.296a.955.955 0 0 1-1.07 0l-.441-.296a.401.401 0 0 0-.504.05 1.862 1.862 0 0 1-2.637 0 .4.4 0 0 0-.566 0 1.846 1.846 0 0 1-1.317.547c-.496 0-.965-.195-1.316-.547a.4.4 0 0 0-.567 0 1.853 1.853 0 0 1-2.633 0 .4.4 0 0 0-.566 0c-.351.352-.82.547-1.316.547-.5 0-.965-.195-1.317-.547a.4.4 0 0 0-.566 0c-.352.352-.82.547-1.316.547-.5 0-.97-.195-1.32-.547a.396.396 0 0 0-.505-.046l-.441.292a.955.955 0 0 1-1.07 0l-.446-.296a.402.402 0 0 0-.504.05l-1.199 1.2a.402.402 0 0 0-.05.507l.296.442a.97.97 0 0 1 0 1.07l-.297.442a.402.402 0 0 0 .051.507c.352.352.547.817.547 1.317 0 .496-.195.965-.547 1.316a.4.4 0 0 0 0 .567 1.853 1.853 0 0 1 0 2.633.402.402 0 0 0 0 .566c.352.351.547.82.547 1.316 0 .5-.195.965-.547 1.317a.386.386 0 0 0-.113.324.385.385 0 0 0 .176.293.958.958 0 0 1 .414.64.956.956 0 0 1-.18.743l-.336.445a.404.404 0 0 0 .04.523l1.198 1.2a.399.399 0 0 0 .524.035l.445-.332a.956.956 0 0 1 .742-.18.944.944 0 0 1 .641.414.396.396 0 0 0 .293.176.386.386 0 0 0 .32-.113 1.862 1.862 0 0 1 2.637 0 .4.4 0 0 0 .566 0c.352-.352.82-.547 1.317-.547.496 0 .965.195 1.316.547a.4.4 0 0 0 .567 0 1.853 1.853 0 0 1 2.633 0 .4.4 0 0 0 .566 0 1.862 1.862 0 0 1 2.637 0 .396.396 0 0 0 .562 0c.352-.352.82-.547 1.32-.547.496 0 .965.195 1.317.547.082.086.199.125.32.113a.39.39 0 0 0 .293-.176.944.944 0 0 1 .64-.414.937.937 0 0 1 .743.18l.445.332c.16.12.383.105.524-.035l1.199-1.2a.404.404 0 0 0 .039-.523l-.336-.445a.963.963 0 0 1 .238-1.383.401.401 0 0 0 .059-.617 1.85 1.85 0 0 1-.543-1.317c0-.496.191-.965.543-1.316a.4.4 0 0 0 .117-.281zm-.93-3.204A2.664 2.664 0 0 0 22.54 12c0 .586.187 1.14.53 1.602a2.644 2.644 0 0 0-.53 1.597c0 .57.175 1.11.5 1.559a1.779 1.779 0 0 0-.423.879 1.75 1.75 0 0 0 .328 1.355l.125.172-.707.707-.168-.125a1.763 1.763 0 0 0-1.36-.328 1.779 1.779 0 0 0-.878.422 2.667 2.667 0 0 0-3.156.031 2.666 2.666 0 0 0-3.2 0 2.672 2.672 0 0 0-3.203 0 2.666 2.666 0 0 0-3.199 0c-.93-.7-2.219-.71-3.156-.031a1.779 1.779 0 0 0-.879-.422 1.763 1.763 0 0 0-1.36.328l-.167.125-.707-.707.125-.172c.293-.39.41-.87.328-1.355a1.779 1.779 0 0 0-.422-.88c.324-.448.5-.987.5-1.558a2.62 2.62 0 0 0-.531-1.597c.347-.461.53-1.016.53-1.602 0-.586-.183-1.14-.53-1.602a2.62 2.62 0 0 0 .53-1.597c0-.602-.194-1.168-.558-1.633l.125-.191a1.751 1.751 0 0 0 0-1.957l-.113-.168.738-.739.168.114a1.751 1.751 0 0 0 1.957 0l.188-.125c.95.738 2.281.746 3.234.027.946.71 2.258.71 3.2 0 .945.71 2.257.71 3.203 0 .941.71 2.253.71 3.199 0a2.672 2.672 0 0 0 3.234-.027l.188.125a1.751 1.751 0 0 0 1.957 0l.168-.114.738.739-.113.168a1.751 1.751 0 0 0 0 1.957l.125.187a2.65 2.65 0 0 0-.559 1.637c0 .586.188 1.14.531 1.597zm0 0"/>
    <path d="M21.2 5.602H2.8A.398.398 0 0 0 2.399 6v12c0 .223.18.398.403.398h18.398a.398.398 0 0 0 .403-.398V6a.398.398 0 0 0-.403-.398zm-.4 12H3.2V6.398h17.6zm0 0"/>
    <path d="M9.602 16.8A2.405 2.405 0 0 0 12 14.399 2.404 2.404 0 0 0 9.602 12a2.405 2.405 0 0 0-2.403 2.398 2.406 2.406 0 0 0 2.403 2.403zm0-4c.878 0 1.597.72 1.597 1.598 0 .883-.719 1.602-1.597 1.602A1.604 1.604 0 0 1 8 14.398c0-.878.719-1.597 1.602-1.597zm0 0M13.11 13.457c.273-.332.71-.332.984 0 .289.352.683.543 1.105.543.426 0 .817-.191 1.11-.543.273-.332.71-.332.984 0 .289.352.684.543 1.105.543.426 0 .82-.191 1.11-.543a.406.406 0 0 0-.051-.566.403.403 0 0 0-.566.054c-.27.328-.711.328-.985 0-.289-.351-.683-.547-1.105-.547-.426 0-.817.196-1.11.547-.273.328-.71.328-.984 0-.289-.351-.684-.547-1.105-.547-.426 0-.82.196-1.11.547a.401.401 0 0 0 .051.563c.172.14.426.117.566-.051zm0 0M13.11 15.855c.273-.328.71-.328.984 0 .289.352.683.543 1.105.543.426 0 .817-.191 1.11-.543.273-.328.71-.328.984 0 .289.352.684.543 1.105.543.426 0 .82-.191 1.11-.543a.401.401 0 0 0-.051-.562.406.406 0 0 0-.566.05c-.27.333-.711.333-.985 0a1.421 1.421 0 0 0-1.105-.542c-.426 0-.817.191-1.11.543-.273.332-.71.332-.984 0a1.421 1.421 0 0 0-1.105-.543c-.426 0-.82.191-1.11.543a.401.401 0 0 0 .617.511zm0 0"/>
</svg>
